X:258
T:The Breton Connection
M:3/4
L:1/8
R:waltz
D:The Tannahill Weavers: Alchemy
N:Learned from The Tannahill Weavers: Alchemy
Z:Michael Abraham Shulman
K:Eb
GE|:F2 F2 GE|C2 C2 B,C|D2 DF ED|ED EF GE|
F2 F2 GE|C2 C2 B,C|DC B,D CB,|1 C4 GE:|2 C3 B, CD|
|:E2 E2 F2|G3 F ED|C3 E GE|D3 B, CD|
E2 E2 F2|G3 F ED|(3CDE DC B,2|1 C3 B, CD:|2 C4 GE|
